public/images/wet.svg

<svg height="439.02399" preserveAspectRatio="xMinYMin meet" viewBox="0 0 956.12476 439.02399" width="956.12476" xmlns="http://www.w3.org/2000/svg"><path d="m784.76421 462.90748c-53.74043-.58107-92.33393.0131-114.75674 2.90361-42.99048 5.55125-88.50143 55.51812-108.70844 90.80189-28.17653 42.0222-58.54856 132.10597-104.85188 131.84464s-73.05735-101.99599-114.08727-101.58219-61.94413 94.26272-124.60579 93.98334c-62.66166-.27937-111.6239-159.67484-124.873565-217.9078h-83.1903864c14.5412604 91.6798 51.6421034 162.13455 85.3476944 211.02514 16.852787 24.44523 35.765367 46.96942 57.460167 64.86237 21.6948 17.89309 36.79435 31.32425 78.72656 32.7585s79.36998-67.60749 105.6293-68.44027c24.25143-.7691 30.66925 24.05405 21.57521 40.12012s-33.34115 43.30766-42.05715 68.35816c-12.46372 35.82204-15.98038 67.51171-15.21365 90.09597l85.02469-.28634c.79346-44.04324 28.4574-123.43459 72.18907-125.79598 26.09687-.07096 72.40657 44.95035 86.24557 63.3016s25.1042 35.87962 50.09872 50.30321 59.8935 15.90137 93.08137 4.04873c44.24049-15.79969 66.62963-58.11828 79.95347-97.78044 13.32383-39.66229 19.33415-83.79235 23.84289-125.63531 4.50876-41.84311 6.02376-66.6541 10.18764-92.92641.84481-5.33034 2.86329-24.88878 21.00169-29.23059 18.13839-4.34181 144.1078-.87599 144.1078-.87599l.22814-84.04104s-128.61461.67575-182.35505.09468zm-65.63955 85.51537c-7.52359 74.72257-9.13977 149.92681-32.02219 219.98456-5.54075 16.37088-26.22502 61.17828-49.89423 47.15019-3.4193-1.97313-12.24425-11.40637-24.70174-27.89169-14.08009-18.63264-34.8486-46.0802-66.2121-66.73975 23.04304-22.95619 41.22858-51.28996 56.39684-76.19101 17.54663-28.80556 29.66983-53.04153 29.73206-53.16599.00017-.00026.0408-.0811.0408-.0811 17.25469-34.48936 55.86983-50.7053 86.66056-43.06521z" transform="matrix(1 0 0 .99999897 -9.690139 -462.70603)"/></svg>

<?xml version="1.0" encoding="UTF-8" standalone="no"?>
<svg xmlns="http://www.w3.org/2000/svg" version="1.1" width="956.12476" height="439.02399" viewBox="0 0 956.12476 439.02399" preserveAspectRatio="xMinYMin meet">
<g transform="matrix(1,0,0,0.99999897,-9.6901386,-462.70603)">
<path d="M 784.76421,462.90748 C 731.02378,462.32641 692.43028,462.92058 670.00747,465.81109 627.01699,471.36234 581.50604,521.32921 561.29903,556.61298 533.1225,598.63518 502.75047,688.71895 456.44715,688.45762 410.14383,688.19629 383.3898,586.46163 342.35988,586.87543 301.32996,587.28923 280.41575,681.13815 217.75409,680.85877 155.09243,680.5794 106.13019,521.18393 92.880525,462.95097 L 9.6901386,462.95097 C 24.231399,554.63077 61.332242,625.08552 95.037833,673.97611 111.89062,698.42134 130.8032,720.94553 152.498,738.83848 174.1928,756.73157 189.29235,770.16273 231.22456,771.59698 273.15677,773.03123 310.59454,703.98949 336.85386,703.15671 361.10529,702.38761 367.52311,727.21076 358.42907,743.27683 349.33503,759.3429 325.08792,786.58449 316.37192,811.63499 303.9082,847.45703 300.39154,879.1467 301.15827,901.73096 L 386.18296,901.44462 C 386.97642,857.40138 414.64036,778.01003 458.37203,775.64864 484.4689,775.57768 530.7786,820.59899 544.6176,838.95024 558.4566,857.30149 569.7218,874.82986 594.71632,889.25345 619.71084,903.67704 654.60982,905.15482 687.79769,893.30218 732.03818,877.50249 754.42732,835.1839 767.75116,795.52174 781.07499,755.85945 787.08531,711.72939 791.59405,669.88643 796.10281,628.04332 797.61781,603.23233 801.78169,576.96002 802.6265,571.62968 804.64498,552.07124 822.78338,547.72943 840.92177,543.38762 966.89118,546.85344 966.89118,546.85344 L 967.11932,462.8124 C 967.11932,462.8124 838.50471,463.48815 784.76427,462.90708 z M 719.12466,548.42285 C 711.60107,623.14542 709.98489,698.34966 687.10247,768.40741 681.56172,784.77829 660.87745,829.58569 637.20824,815.5576 633.78894,813.58447 624.96399,804.15123 612.5065,787.66591 598.42641,769.03327 577.6579,741.58571 546.2944,720.92616 569.33744,697.96997 587.52298,669.6362 602.69124,644.73515 620.23787,615.92959 632.36107,591.69362 632.4233,591.56916 632.42347,591.5689 632.4641,591.48806 632.4641,591.48806 649.71879,556.9987 688.33393,540.78276 719.12466,548.42285 z"/>
</g>
</svg>
